shader_type canvas_item;

uniform float flash_intensity : hint_range(0.0, 1.0) = 0.0;
uniform vec4 flash_color : source_color = vec4(1.0, 0.0, 0.0, 1.0);

void fragment() {
    vec4 tex = texture(TEXTURE, UV);
    COLOR = mix(tex, flash_color, flash_intensity * tex.a);
    COLOR.a = tex.a;
}